X:505
T:Oblique Jig, The
R:jig
C:Niall Vallely
H:Also played in Bm, #506
Z:id:hn-jig-505
M:6/8
L:1/8
K:Em
EGA B2G | AGB AGE | B2G AGE | GAA AGE |
EGA B2G | AGB AGE | B2G AGE | DEE E3 :|
|: DEE GEE | A2B AGE | DEE GEE | B2G AGE |
DEE GEE | A2B AGE | B2G AGE | DEE E3 :|

